X: 3001
T: CAPTAIN FRANCIS WEMYSS
Q:"Strathspey."
R: Strathspey.
%R:strathspey
B: James Kerr "Merry Melodies" v.3 p.3 #1
Z: 2016 John Chambers <jc:trillian.mit.edu>
M: C
L: 1/16
K: D
uA2 |\
vFuA3 vd3uA vB3vAud3uA | Bd3 A3F EEE2 E4 |\
FA3 d3A B3Ad3A | Bd3 A3F DDD2 D2 ::\
g2 |\
f3ed3e d3ef3g |
ad3a3f eee2 (e3g) |\
[1 f3ed3e d3ef3e | d3BA3F DDD2 D2 :|\
[2 fa3 ef3 de3 Bd3 | A3Fd3F DDD2 D2 |]

%%sep 1 1 500
%%sep 1 1 500

